img/svg/yt.svg

<svg viewBox="0 0 149.98 149.98" xmlns="http://www.w3.org/2000/svg"><rect fill="#ca2128" height="149.98" opacity=".7" rx="22.79" width="149.98"/><path d="m64 18.43h-6.5l-4.4 16.92-4.58-16.92h-6.8c1.36 4 2.78 8 4.14 12a107.21 107.21 0 0 1 4 13.63v17.47h6.45v-17.46zm17.25 32.7v-11.25c0-3.43-.59-5.94-1.81-7.57a8.64 8.64 0 0 0 -13.57 0c-1.24 1.63-1.82 4.14-1.82 7.57v11.25c0 3.42.58 5.95 1.82 7.56a8.64 8.64 0 0 0 13.57 0c1.25-1.61 1.84-4.14 1.84-7.56zm-5.82 1.1c0 3-.9 4.46-2.78 4.46s-2.75-1.49-2.75-4.46v-13.52c0-3 .9-4.45 2.78-4.45s2.78 1.48 2.78 4.45zm27.35 9.3v-32.12h-5.78v24.59q-2 2.69-3.69 2.69c-.79 0-1.24-.46-1.37-1.37a13.59 13.59 0 0 1 -.07-2.26v-23.65h-5.8v25.4a15.91 15.91 0 0 0 .52 4.78 3.55 3.55 0 0 0 3.74 2.41c2.13 0 4.34-1.31 6.67-4v3.5z" fill="#ffeed7"/><path d="m121.66 100.52c0 7.43 0 15.32-1.67 22.53a12 12 0 0 1 -10.3 9.37c-11.82 1.32-23.78 1.32-35.69 1.32s-23.87 0-35.69-1.32a12 12 0 0 1 -10.31-9.37c-1.66-7.21-1.66-15.1-1.66-22.53s.03-15.31 1.66-22.52a12 12 0 0 1 10.3-9.36c11.85-1.34 23.81-1.34 35.7-1.34s23.87 0 35.69 1.33a12 12 0 0 1 10.31 9.37c1.67 7.21 1.66 15.08 1.66 22.52z" fill="#ffeed7"/><path d="m53.54 84.49v-6h-20.09v6h6.78v36.65h6.4v-36.65zm11.63 36.65v-3.47c-2.28 2.63-4.46 3.91-6.58 3.91a3.53 3.53 0 0 1 -3.71-2.36 16.43 16.43 0 0 1 -.51-4.73v-25.14h5.76v23.4a19 19 0 0 0 0 2.25c.14.89.58 1.34 1.35 1.34 1.16 0 2.37-.89 3.64-2.69v-24.3h5.77v31.79zm21.89-9.08c0 2.87-.84 4.28-2.5 4.28a4.14 4.14 0 0 1 -2.88-1.41v-19.38a4.16 4.16 0 0 1 2.88-1.4c1.66 0 2.5 1.47 2.5 4.34zm5.76-.46v-12.66a24.77 24.77 0 0 0 -.58-6.39c-.77-2.38-2.31-3.55-4.61-3.55-2.11 0-4.09 1.16-5.95 3.45v-13.97h-5.75v42.66h5.75v-3.08c1.93 2.38 3.9 3.52 5.95 3.52 2.3 0 3.84-1.21 4.61-3.57a25.71 25.71 0 0 0 .58-6.41zm16-10.1h-5.82v-2.94c0-2.94 1-4.41 2.89-4.41s2.87 1.47 2.87 4.41zm5.76 9.47v-.84h-5.88a39 39 0 0 1 -.12 3.9 2.48 2.48 0 0 1 -2.58 2.31c-2 0-2.94-1.46-2.94-4.41v-5.63h11.52v-6.59c0-3.4-.58-5.88-1.78-7.49a8 8 0 0 0 -6.8-3.22 8.15 8.15 0 0 0 -6.89 3.26c-1.23 1.61-1.78 4.09-1.78 7.49v11.14c0 3.37.62 5.88 1.84 7.47a8.27 8.27 0 0 0 7 3.26 8 8 0 0 0 7-3.45 8.32 8.32 0 0 0 1.35-3.45c-.03-.62.04-1.9.04-3.72z" fill="#ca2128" opacity=".7"/></svg>

<svg xmlns="http://www.w3.org/2000/svg" viewBox="0 0 149.98 149.98"><defs><style>.cls-1{fill:#ca2128;opacity:0.7;}.cls-2{fill:#ffeed7;}</style></defs><title>Asset 14</title><g id="Layer_2" data-name="Layer 2"><g id="Ebene_1" data-name="Ebene 1"><rect class="cls-1" width="149.98" height="149.98" rx="22.79" ry="22.79"/><path class="cls-2" d="M64,18.43H57.5L53.1,35.35,48.52,18.43h-6.8c1.36,4,2.78,8,4.14,12a107.21,107.21,0,0,1,4,13.63V61.53h6.45V44.07Zm17.25,32.7V39.88c0-3.43-.59-5.94-1.81-7.57a8.64,8.64,0,0,0-13.57,0c-1.24,1.63-1.82,4.14-1.82,7.57V51.13c0,3.42.58,5.95,1.82,7.56a8.64,8.64,0,0,0,13.57,0C80.69,57.08,81.28,54.55,81.28,51.13Zm-5.82,1.1c0,3-.9,4.46-2.78,4.46S69.9,55.2,69.9,52.23V38.71c0-3,.9-4.45,2.78-4.45s2.78,1.48,2.78,4.45Zm27.35,9.3V29.41H97V54Q95,56.69,93.31,56.69c-.79,0-1.24-.46-1.37-1.37a13.59,13.59,0,0,1-.07-2.26V29.41h-5.8v25.4a15.91,15.91,0,0,0,.52,4.78A3.55,3.55,0,0,0,90.33,62C92.46,62,94.67,60.69,97,58v3.5Z"/><path class="cls-2" d="M121.66,100.52c0,7.43,0,15.32-1.67,22.53a12,12,0,0,1-10.3,9.37c-11.82,1.32-23.78,1.32-35.69,1.32s-23.87,0-35.69-1.32A12,12,0,0,1,28,123.05c-1.66-7.21-1.66-15.1-1.66-22.53S26.37,85.21,28,78a12,12,0,0,1,10.3-9.36C50.15,67.3,62.11,67.3,74,67.3s23.87,0,35.69,1.33A12,12,0,0,1,120,78C121.67,85.21,121.66,93.08,121.66,100.52Z"/><path class="cls-1" d="M53.54,84.49v-6H33.45v6h6.78v36.65h6.4V84.49Zm11.63,36.65v-3.47c-2.28,2.63-4.46,3.91-6.58,3.91a3.53,3.53,0,0,1-3.71-2.36,16.43,16.43,0,0,1-.51-4.73V89.35h5.76v23.4a19,19,0,0,0,0,2.25c.14.89.58,1.34,1.35,1.34,1.16,0,2.37-.89,3.64-2.69V89.35h5.77v31.79Zm21.89-9.08c0,2.87-.84,4.28-2.5,4.28a4.14,4.14,0,0,1-2.88-1.41V95.55a4.16,4.16,0,0,1,2.88-1.4c1.66,0,2.5,1.47,2.5,4.34Zm5.76-.46V98.94a24.77,24.77,0,0,0-.58-6.39C91.47,90.17,89.93,89,87.63,89c-2.11,0-4.09,1.16-5.95,3.45V78.48H75.93v42.66h5.75v-3.08c1.93,2.38,3.9,3.52,5.95,3.52,2.3,0,3.84-1.21,4.61-3.57A25.71,25.71,0,0,0,92.82,111.6Zm16-10.1H103V98.56c0-2.94,1-4.41,2.89-4.41s2.87,1.47,2.87,4.41Zm5.76,9.47v-.84h-5.88a39,39,0,0,1-.12,3.9,2.48,2.48,0,0,1-2.58,2.31c-2,0-2.94-1.46-2.94-4.41V106.3h11.52V99.71c0-3.4-.58-5.88-1.78-7.49A8,8,0,0,0,106,89a8.15,8.15,0,0,0-6.89,3.26c-1.23,1.61-1.78,4.09-1.78,7.49v11.14c0,3.37.62,5.88,1.84,7.47a8.27,8.27,0,0,0,7,3.26,8,8,0,0,0,7-3.45,8.32,8.32,0,0,0,1.35-3.45C114.49,114.1,114.56,112.82,114.56,111Z"/></g></g></svg>
